svg/fluentui-system-icons/ic_fluent_hand_right_24_regular.svg

<svg width="24" height="24" viewBox="0 0 24 24" fill="none" xmlns="http://www.w3.org/2000/svg">
<path d="M11.9981 3.99585V10.249C11.9981 10.6632 12.3339 10.999 12.7481 10.999C13.1623 10.999 13.4981 10.6632 13.4981 10.249V5.22247C13.4981 4.98301 13.7023 4.74664 13.9959 4.74493C14.2584 4.74332 14.5 4.9895 14.5 5.24902V12.749C14.5 13.0567 14.6879 13.3332 14.974 13.4464C15.2593 13.5593 15.5846 13.487 15.7952 13.2641L15.7959 13.2633L15.7985 13.2606C15.8026 13.2564 15.8101 13.2489 15.8208 13.2383C15.8422 13.2171 15.8766 13.184 15.9226 13.1425C16.0151 13.059 16.1521 12.9435 16.3241 12.8218C16.6758 12.5728 17.1332 12.3262 17.6268 12.2398C18.1641 12.1456 18.6737 12.2031 19.0124 12.378C19.221 12.4857 19.3843 12.643 19.4577 12.9064L17.7993 14.1531C17.7713 14.1742 17.7448 14.1972 17.7199 14.222L15.5447 16.395C14.6101 17.3286 13.8326 18.4071 13.242 19.5887C12.9628 20.1474 12.3918 20.5004 11.7672 20.5004H9.03943C8.46764 20.5004 7.97061 20.2276 7.7136 19.7873C6.97783 18.527 6 16.4995 6 14.7526V6.99902C6 6.73061 6.21505 6.49896 6.50115 6.49896C6.79011 6.49896 7.00409 6.72967 7.00409 6.99902V10.499C7.00409 10.9132 7.33988 11.249 7.75409 11.249C8.1683 11.249 8.50409 10.9132 8.50409 10.499V5.24902C8.50409 4.97076 8.71851 4.74495 9 4.74495C9.28688 4.74495 9.5 4.97053 9.5 5.24903V10.249C9.5 10.6632 9.83579 10.999 10.25 10.999C10.6642 10.999 11 10.6632 11 10.249V3.99585C11 3.72318 11.2121 3.49632 11.4986 3.49609C11.789 3.49587 11.9981 3.71909 11.9981 3.99585ZM13.9866 3.24496C13.7753 3.24621 13.5744 3.27896 13.3872 3.338ZM13.3872 3.338C13.1247 2.57945 12.4176 1.99538 11.4974 1.99609C10.5817 1.99681 9.87538 2.58206 9.61197 3.33746C9.42187 3.27761 9.21687 3.24495 9 3.24495C7.8915 3.24495 7.10363 4.10059 7.01285 5.06309C6.85127 5.02137 6.6801 4.99896 6.50115 4.99896C5.33182 4.99896 4.5 5.95807 4.5 6.99902V14.7526C4.5 16.9332 5.67139 19.2644 6.4182 20.5436C6.97463 21.4967 7.99781 22.0004 9.03943 22.0004H11.7672C12.9601 22.0004 14.0505 21.3263 14.5838 20.2593C15.1021 19.2222 15.7846 18.2756 16.6048 17.4562L18.7428 15.3205L20.7007 13.8485C20.8891 13.7068 21 13.4848 21 13.249C21 12.1874 20.4687 11.4419 19.7008 11.0453C18.9851 10.6756 18.1185 10.6307 17.3678 10.7623C16.8491 10.8532 16.3849 11.0457 16 11.2571V5.24902C16 4.18865 15.1118 3.2382 13.9866 3.24496" fill="#212121"/>
</svg>

<svg xmlns="http://www.w3.org/2000/svg" width="24" height="24"><path d="M11.998 3.996v6.253a.75.75 0 0 0 1.5 0V5.222c0-.239.204-.475.498-.477a.527.527 0 0 1 .504.504v7.5a.75.75 0 0 0 1.295.515l.004-.003a2.232 2.232 0 0 1 .124-.118c.092-.084.23-.2.401-.321.352-.25.81-.496 1.303-.582.537-.094 1.047-.037 1.385.138a.819.819 0 0 1 .446.528l-1.659 1.247a.764.764 0 0 0-.08.069l-2.174 2.173a12.265 12.265 0 0 0-2.303 3.194 1.65 1.65 0 0 1-1.475.911H9.04c-.571 0-1.068-.272-1.325-.713C6.978 18.527 6 16.5 6 14.753V6.999a.5.5 0 0 1 .501-.5c.29 0 .503.23.503.5v3.5a.75.75 0 0 0 1.5 0v-5.25c0-.278.215-.504.496-.504.287 0 .5.226.5.504v5a.75.75 0 0 0 1.5 0V3.996c0-.273.212-.5.499-.5.29 0 .5.223.5.5Zm1.989-.751a2.028 2.028 0 0 0-.6.093Zm-.6.093a1.977 1.977 0 0 0-1.89-1.342c-.915 0-1.622.586-1.885 1.341A2.032 2.032 0 0 0 9 3.245c-1.109 0-1.896.856-1.987 1.818A2.043 2.043 0 0 0 6.5 5c-1.17 0-2.001.96-2.001 2v7.754c0 2.18 1.171 4.511 1.918 5.79C6.975 21.498 7.998 22 9.04 22h2.728a3.149 3.149 0 0 0 2.817-1.74 10.764 10.764 0 0 1 2.02-2.804l2.139-2.136 1.958-1.472A.75.75 0 0 0 21 13.25c0-1.062-.531-1.807-1.3-2.204-.715-.37-1.581-.414-2.332-.283a4.474 4.474 0 0 0-1.368.495V5.25c0-1.06-.888-2.01-2.013-2.004"/></svg>
